X: 16608
T: Handsome Sally
R: reel
M: 4/4
K: Edorian
|:E2BE GEBE|E2BE AFDF|~E3F ~G3B|1 AFDE FEED:|2 AFDE FEE2||
|:fedB ~A3e|fedB AFD2|edef ~g3e|1 dBAF FEDe:|2 dBAF FEDF||

